X: 1
T: Charlie Mack's
M: 6/8
L: 1/8
R: jig
K: Amaj
|:cee a2e|faf ecA|def ecA|GBB B2e|
cee a2e|faf ecA|def ecA|BAA A3:|
|:cAA eAA|fAA eAA|cAA eAA|GBB B2e|
cAA eAA|fef efg|agf eAc|BAA A3:|
